X: 7817
T: Comedian, The
R: jig
M: 6/8
K: Dmajor
|:E|AAd cBA|def f2e|aed cBA|GAB E2 E|
AEd cBA|def f2e|dcB ABA|A3 A2:|
|:e|efd c2c|B2A^G2E|F^GA F^GA|d2cB2A|
efd c2c|B2AE2a|edc BA^G|A3A2:|

